X: 7
T: Scarce O' Tatties
R: jig
M: 6/8
L: 1/8
K: Amix
A2e efg|edB dBG|A2e efg|edB A2e|
a3 g3|f3 eAA|A2e efg|edB A2G:|
|:aeg a2f|g2f e2A|aeg a2f|g2f e3|
e2e A2A|d2f fed|A2e efg|edB A3:|]


Tune 95	Setting 23671

